public/logo-black.svg

<svg width="1362" height="205" viewBox="0 0 1362 205" fill="none" xmlns="http://www.w3.org/2000/svg">
<path d="M13.3251 155.59C4.39946 149.391 -0.145987 140.631 -0.311276 129.392C-0.476564 118.978 2.2507 110.673 7.87053 104.433C13.4903 98.2346 22.1267 93.8544 33.6969 91.3337L55.3911 86.7883C62.6225 85.2594 67.8704 83.2346 71.1349 80.59C74.3993 77.9867 76.0522 74.433 76.0522 69.8875C76.0522 65.3421 74.0274 61.3751 70.0192 58.3999C65.9696 55.4661 60.5977 53.9785 53.9035 53.9785H51.6308C44.3994 53.9785 38.4903 55.9206 33.8622 59.7636C29.2341 63.6479 26.3416 69.0197 25.1845 75.8792H1.21765C1.8788 66.7883 4.60607 59.1024 9.39945 52.8214C14.1928 46.5405 20.3498 41.7884 27.9118 38.5653C35.4738 35.3835 43.8622 33.7719 53.1184 33.7719C62.3746 33.7719 71.0109 35.3008 78.077 38.3173C85.1431 41.3339 90.5563 45.59 94.3166 51.0446C98.1183 56.4991 99.9778 62.7801 99.9778 69.8049C99.9778 80.2181 96.7133 88.3585 90.1431 94.2676C83.5729 100.135 74.0274 104.35 61.4241 106.871L42.0027 110.673C35.2672 112.036 30.4325 114.226 27.4986 117.367C24.5647 120.466 23.0771 124.226 23.0771 128.565C23.0771 133.937 25.3912 138.152 30.0192 141.168C34.6473 144.185 40.2258 145.714 46.7961 145.714H49.0688C57.4572 145.714 64.2341 143.772 69.358 139.929C74.482 136.044 77.3745 130.342 78.0357 122.78H102.498C101.507 136.21 96.2175 146.582 86.7547 153.896C77.2506 161.21 64.5233 164.846 48.5729 164.846C33.9449 164.846 22.2093 161.747 13.2837 155.507L13.3251 155.59Z" fill="#21201F"/>
<path d="M140.556 157.243C132.374 152.16 125.928 144.805 121.259 135.136C116.589 125.466 114.234 114.061 114.234 100.962C114.234 87.8629 116.589 76.458 121.259 66.7886C125.928 57.1192 132.374 49.7638 140.556 44.6812C148.738 39.5985 157.994 37.0779 168.325 37.0779C177.994 37.0779 185.928 38.8134 192.167 42.2432C198.407 45.6729 203.572 50.5076 207.663 56.7473V39.5572H231.01V162.45H207.663V145.259C203.572 151.499 198.407 156.334 192.167 159.764C185.928 163.193 177.994 164.929 168.325 164.929C157.994 164.929 148.738 162.408 140.556 157.326V157.243ZM189.977 140.177C195.225 136.83 199.482 131.788 202.746 125.053C206.01 118.317 207.663 110.301 207.663 100.962C207.663 91.6232 206.01 83.6067 202.746 76.8712C199.482 70.1357 195.225 65.0944 189.977 61.7473C184.729 58.4002 179.151 56.7059 173.242 56.7059H170.804C164.564 56.7059 158.903 58.4002 153.862 61.7473C148.82 65.0944 144.812 70.0943 141.961 76.7472C139.11 83.4001 137.663 91.4579 137.663 100.962C137.663 110.466 139.11 118.524 141.961 125.177C144.812 131.83 148.82 136.83 153.862 140.177C158.944 143.524 164.606 145.218 170.804 145.218H173.242C179.151 145.218 184.729 143.524 189.977 140.177Z" fill="#21201F"/>
<path d="M242.705 100.219C242.705 61.2105 266.837 34.3923 303.655 34.3923C335.597 34.3923 356.796 55.1361 359.729 83.1526H335.101C333.903 70.2187 326.548 54.1444 303.903 54.1444C277.333 54.1444 267.581 76.8303 267.581 100.219C267.581 123.607 277.333 146.045 303.903 146.045C326.837 146.045 333.903 130.425 335.101 116.293H359.729C358.035 144.805 335.845 166.045 303.903 166.045C266.837 166.045 242.705 139.227 242.705 100.219Z" fill="#21201F"/>
<path d="M411.217 58.6484H371.382V39.4749H474.357V58.6484H434.522V162.367H411.175V58.6484H411.217Z" fill="#21201F"/>
<path d="M605.596 99.7228C605.596 141.045 581.258 165.838 549.316 165.838C529.646 165.838 517.621 156.995 510.721 146.913H510.225V205.921H486.134V37.037H510.225V51.789H510.721C517.621 42.946 529.646 33.3593 549.316 33.3593C581.258 33.3593 605.596 58.4419 605.596 99.7228ZM580.266 99.7228C580.266 75.1361 568.944 53.5245 545.349 53.5245C523.696 53.5245 510.431 71.2104 510.431 99.7228C510.431 128.235 523.696 145.921 545.349 145.921C568.944 145.921 580.266 124.268 580.266 99.7228Z" fill="#21201F"/>
<path d="M646.299 156.747C637.29 151.334 630.183 143.813 625.018 134.144C619.852 124.474 617.291 113.4 617.291 100.962C617.291 88.5241 619.852 77.4497 625.018 67.7803C630.183 58.1109 637.249 50.5903 646.299 45.177C655.307 39.7638 665.307 37.0779 676.299 37.0779C687.29 37.0779 697.29 39.7638 706.299 45.177C715.307 50.5903 722.414 58.1109 727.58 67.7803C732.745 77.4497 735.307 88.5241 735.307 100.962C735.307 113.4 732.745 124.474 727.58 134.144C722.414 143.813 715.348 151.334 706.299 156.747C697.29 162.16 687.29 164.846 676.299 164.846C665.307 164.846 655.307 162.16 646.299 156.747ZM695.224 139.888C700.472 136.375 704.563 131.293 707.497 124.64C710.431 117.987 711.918 110.094 711.918 100.921C711.918 91.7472 710.431 83.8547 707.497 77.2018C704.563 70.5489 700.431 65.5076 695.224 61.9539C689.976 58.4415 683.985 56.6646 677.29 56.6646H675.307C668.571 56.6646 662.621 58.4415 657.373 61.9539C652.125 65.4663 648.034 70.5489 645.1 77.2018C642.166 83.8547 640.679 91.7472 640.679 100.921C640.679 110.094 642.166 117.987 645.1 124.64C648.034 131.293 652.125 136.375 657.373 139.888C662.621 143.4 668.613 145.177 675.307 145.177H677.29C684.026 145.177 689.976 143.4 695.224 139.888Z" fill="#21201F"/>
<path d="M928.736 67.9869C924.893 58.3175 919.315 50.7556 912.001 45.2597C904.728 39.7639 896.092 37.0366 886.092 37.0366C878.365 37.0366 871.67 38.5655 865.927 41.582C860.183 44.5986 855.348 48.4415 851.422 53.0283V-0.0707703H828.819V53.0283C825.389 48.6068 820.844 44.8052 815.183 41.706C809.522 38.6068 802.497 37.0366 794.15 37.0366C784.48 37.0366 776.092 39.8465 768.943 45.5076C761.836 51.1688 756.381 58.8547 752.621 68.6068C748.819 78.3588 746.96 89.1439 746.96 100.962C746.96 112.78 748.902 124.226 752.745 133.896C756.588 143.565 762.166 151.127 769.439 156.623C776.753 162.119 785.39 164.846 795.389 164.846C803.737 164.846 810.472 163.4 815.555 160.549C820.596 157.697 825.059 153.813 828.819 148.896V205.921H851.422V148.896C855.017 153.648 859.604 157.491 865.183 160.425C870.761 163.4 877.745 164.846 886.092 164.846C896.092 164.846 904.728 162.078 912.001 156.499C919.315 150.921 924.893 143.317 928.736 133.648C932.579 123.979 934.521 113.069 934.521 100.962C934.521 88.8547 932.579 77.6977 928.736 67.9869ZM825.389 124.929C823.075 131.541 819.77 136.664 815.431 140.26C811.092 143.896 805.72 145.673 799.315 145.673H797.827C788.654 145.673 781.795 141.54 777.208 133.276C772.621 125.012 770.307 114.227 770.307 100.962C770.307 92.4084 771.381 84.8051 773.489 78.0696C775.637 71.3754 778.778 66.0448 782.952 62.1192C787.166 58.1522 792.084 56.2101 797.827 56.2101H799.315C808.819 56.2101 816.092 60.1357 821.175 67.9869C826.257 75.8795 828.819 86.8712 828.819 100.962C828.819 110.301 827.662 118.276 825.389 124.929ZM907.125 124.061C905.224 130.755 902.207 136.045 898.117 139.888C894.026 143.772 888.778 145.673 882.414 145.673H880.926C871.422 145.673 864.108 141.747 859.067 133.896C853.984 126.003 851.422 115.053 851.422 100.962C851.422 91.6233 852.579 83.6067 854.852 76.9952C857.166 70.3423 860.472 65.2183 864.811 61.6233C869.15 58.0283 874.522 56.2101 880.926 56.2101H882.414C891.588 56.2101 898.447 60.301 903.034 68.4828C907.621 76.7059 909.935 87.491 909.935 100.962C909.935 109.64 908.984 117.326 907.125 124.061Z" fill="#21201F"/>
<path d="M1130.31 100.219C1130.31 61.2105 1154.44 34.3923 1191.26 34.3923C1223.2 34.3923 1244.4 55.1361 1247.33 83.1526H1222.7C1221.5 70.2187 1214.15 54.1444 1191.5 54.1444C1164.93 54.1444 1155.18 76.8303 1155.18 100.219C1155.18 123.607 1164.93 146.045 1191.5 146.045C1214.44 146.045 1221.5 130.425 1222.7 116.293H1247.33C1245.64 144.805 1223.45 166.045 1191.5 166.045C1154.44 166.045 1130.31 139.227 1130.31 100.219Z" fill="#21201F"/>
<path d="M1298.86 58.6484H1259.02V39.4749H1362V58.6484H1322.17V162.367H1298.82V58.6484H1298.86Z" fill="#21201F"/>
<path d="M1046.84 61.7885V141.747H972.579L992.249 61.7885H1046.79M1067.46 41.1274H976.051L946.175 162.408H1067.46V41.1274Z" fill="#21201F"/>
<path d="M1067.5 41.1274C1077.5 81.5405 1087.46 121.995 1097.46 162.408H1118.61L1088.74 41.1274H1067.5Z" fill="#21201F"/>
<path d="M1067.54 20.5076H1046.88V41.1274H1067.54V20.5076Z" fill="#21201F"/>
<path d="M1026.13 20.5076H1005.47V41.1274H1026.13V20.5076Z" fill="#21201F"/>
<path d="M1026.13 -0.0707703H1046.96C1058.36 -0.0707703 1067.58 9.18541 1067.58 20.549H1005.51C1005.47 9.18541 1014.73 -0.0707703 1026.13 -0.0707703Z" fill="#21201F"/>
</svg>

<svg xmlns="http://www.w3.org/2000/svg" fill="none" viewBox="0 0 1362 205"><path d="M13.33 155.59C4.4 149.4-.15 140.63-.31 129.4c-.17-10.42 2.56-18.73 8.18-24.97 5.62-6.2 14.26-10.58 25.83-13.1l21.7-4.54c7.22-1.53 12.47-3.56 15.73-6.2 3.27-2.6 4.92-6.16 4.92-10.7 0-4.55-2.02-8.51-6.03-11.5-4.05-2.92-9.42-4.41-16.12-4.41h-2.27c-7.23 0-13.14 1.94-17.77 5.78-4.63 3.9-7.52 9.26-8.68 16.12H1.22c.66-9.1 3.39-16.78 8.18-23.06a45.02 45.02 0 0 1 18.5-14.25c7.56-3.19 15.95-4.8 25.2-4.8 9.26 0 17.9 1.53 24.97 4.55 7.06 3.01 12.48 7.27 16.24 12.72A32.16 32.16 0 0 1 100 69.8c0 10.42-3.27 18.56-9.84 24.47-6.57 5.87-16.11 10.08-28.72 12.6l-19.4 3.8c-6.74 1.37-11.58 3.56-14.5 6.7a15.77 15.77 0 0 0-4.42 11.2c0 5.37 2.3 9.58 6.94 12.6 4.63 3.02 10.2 4.54 16.78 4.54h2.27c8.4.06 15.16-1.9 20.3-5.72 5.11-3.9 8-9.6 8.67-17.15h24.46c-1 13.43-6.28 23.8-15.75 31.12-9.5 7.3-22.23 10.95-38.18 10.95-14.63 0-26.36-3.1-35.29-9.34l.05.08Zm127.23 1.65c-8.19-5.08-14.63-12.44-19.3-22.1-4.67-9.67-7.03-21.08-7.03-34.18 0-13.1 2.36-24.5 7.03-34.17 4.67-9.67 11.11-17.03 19.3-22.1 8.18-5.1 17.43-7.67 27.76-7.67 9.67 0 17.6 1.73 23.85 5.16a43.31 43.31 0 0 1 15.5 14.51V39.57H231v122.89h-23.35v-17.2a43.32 43.32 0 0 1-15.5 14.51c-6.23 3.43-14.17 5.17-23.84 5.17-10.33 0-19.58-2.52-27.76-7.6v-.09Zm49.42-17.06c5.25-3.35 9.5-8.4 12.77-15.13 3.26-6.73 4.91-14.75 4.91-24.09s-1.65-17.35-4.9-24.09c-3.28-6.73-7.54-11.78-12.78-15.12a30.62 30.62 0 0 0-16.74-5.04h-2.44a30 30 0 0 0-16.94 5.04c-5.04 3.34-9.05 8.34-11.9 15-2.85 6.65-4.3 14.7-4.3 24.21 0 9.5 1.45 17.56 4.3 24.22 2.85 6.65 6.86 11.65 11.9 15a30.2 30.2 0 0 0 16.94 5.04h2.44a30.7 30.7 0 0 0 16.74-5.04Zm52.73-39.96c.05-39 24.2-65.83 61.01-65.83 31.94 0 53.14 20.75 56.07 48.76H335.1c-1.2-12.93-8.55-29-31.2-29-26.57 0-36.32 22.68-36.32 46.07s9.75 45.82 36.32 45.82c22.94 0 30-15.61 31.2-29.75h24.63c-1.7 28.52-23.88 49.75-55.83 49.75-37.06 0-61.2-26.81-61.2-65.82Zm168.57-41.57H371.4V39.47h102.98v19.18h-39.84v103.72H411.2V58.65h.04ZM605.6 99.72c0 41.32-24.34 66.12-56.28 66.12-19.67 0-31.7-8.84-38.6-18.93h-.5v59.01h-24.09V37.04h24.1v14.75h.5c6.9-8.84 18.92-18.43 38.6-18.43 31.93 0 56.27 25.08 56.27 66.36Zm-25.33 0c0-24.58-11.33-46.2-34.92-46.2-21.65 0-34.92 17.7-34.92 46.2 0 28.52 13.27 46.2 34.92 46.2 23.6 0 34.92-21.65 34.92-46.2Zm66.03 57.03a57.27 57.27 0 0 1-21.28-22.6c-5.17-9.68-7.73-20.75-7.73-33.19 0-12.44 2.56-23.5 7.73-33.18 5.16-9.67 12.23-17.19 21.28-22.6 9-5.42 19-8.1 30-8.1s21 2.68 30 8.1a57.28 57.28 0 0 1 21.28 22.6c5.16 9.67 7.73 20.74 7.73 33.18 0 12.44-2.56 23.51-7.73 33.18-5.17 9.67-12.23 17.2-21.28 22.6-9 5.42-19 8.1-30 8.1s-21-2.68-30-8.1Zm48.92-16.86c5.25-3.51 9.34-8.6 12.28-15.25 2.93-6.65 4.42-14.55 4.42-23.72 0-9.17-1.5-17.07-4.42-23.72-2.94-6.65-7.07-11.7-12.28-15.25a31.54 31.54 0 0 0-17.93-5.3h-2a31.45 31.45 0 0 0-17.98 5.3c-5.25 3.5-9.34 8.6-12.27 15.25-2.93 6.65-4.42 14.55-4.42 23.72 0 9.17 1.5 17.07 4.42 23.72 2.93 6.65 7.02 11.73 12.27 15.25a31.55 31.55 0 0 0 17.94 5.29h1.97c6.74 0 12.7-1.78 17.93-5.3Zm233.52-71.9c-3.85-9.67-9.42-17.23-16.74-22.73-7.27-5.5-15.9-8.22-25.9-8.22-7.74 0-14.43 1.53-20.17 4.54a48.67 48.67 0 0 0-14.5 11.45V-.07h-22.61v53.1a43.27 43.27 0 0 0-13.64-11.32c-5.66-3.1-12.68-4.67-21.03-4.67-9.67 0-18.06 2.8-25.2 8.47-7.11 5.66-12.57 13.34-16.33 23.1-3.8 9.75-5.66 20.53-5.66 32.35s1.94 23.27 5.78 32.94c3.85 9.66 9.43 17.23 16.7 22.72 7.3 5.5 15.95 8.23 25.95 8.23 8.3 0 15.02-1.45 20.1-4.3a43.79 43.79 0 0 0 13.27-11.65v57.02h22.6V148.9c3.6 4.75 8.18 8.6 13.76 11.53 5.58 2.97 12.57 4.42 20.91 4.42 10 0 18.64-2.77 25.9-8.35 7.33-5.58 12.9-13.18 16.75-22.85 3.84-9.67 5.78-20.58 5.78-32.69 0-12.1-1.94-23.26-5.78-32.97Zm-103.35 56.94c-2.31 6.6-5.62 11.73-9.96 15.33-4.34 3.64-9.7 5.41-16.11 5.41h-1.5c-9.17 0-16.03-4.13-20.61-12.4-4.6-8.26-6.9-19.04-6.9-32.3 0-8.56 1.07-16.16 3.18-22.9 2.15-6.7 5.29-12.03 9.46-15.95a20.88 20.88 0 0 1 14.88-5.9h1.49c9.5 0 16.77 3.92 21.85 11.77 5.09 7.89 7.65 18.88 7.65 32.97 0 9.34-1.16 17.32-3.43 23.97Zm81.74-.87c-1.9 6.7-4.92 11.98-9.01 15.83-4.1 3.82-9.34 5.72-15.7 5.72h-1.5c-9.5 0-16.81-3.92-21.85-11.77-5.1-7.9-7.65-18.85-7.65-32.94 0-9.34 1.16-17.35 3.43-23.96 2.32-6.67 5.62-11.8 9.96-15.4 4.34-3.6 9.7-5.4 16.12-5.4h1.48c9.18 0 16.04 4.09 20.62 12.27 4.6 8.23 6.9 19 6.9 32.48 0 8.68-.95 16.37-2.8 23.1Zm223.18-23.84c0-39 24.13-65.83 60.95-65.83 31.94 0 53.14 20.75 56.07 48.76h-24.63c-1.2-12.93-8.55-29-31.2-29-26.57 0-36.32 22.68-36.32 46.07s9.75 45.82 36.32 45.82c22.94 0 30-15.61 31.2-29.75h24.63c-1.69 28.52-23.88 49.75-55.83 49.75-37.06 0-61.2-26.81-61.2-65.82Zm168.55-41.57h-39.84V39.47H1362v19.18h-39.83v103.72h-23.35V58.65h.04Zm-252.02 3.14v79.96h-74.26l19.67-79.96h54.54m20.67-20.73h-91.4l-29.89 121.3h121.28V41.13Zm.04 0c10 40.4 19.96 80.88 29.96 121.29h21.15l-29.87-121.3h-21.24Zm.04-20.61h-20.66v20.6h20.66V20.5Zm-41.4-.01h-20.67V41.1h20.66V20.5Z" fill="#21201F"/><path d="M1026.13-.07h20.83c11.4 0 20.62 9.26 20.62 20.62h-62.07a20.6 20.6 0 0 1 20.68-20.62Z" fill="#21201F"/></svg>
